icons/mobile/24/svg/racing-24.svg

<svg width="24" height="24" viewBox="0 0 24 24" fill="none" xmlns="http://www.w3.org/2000/svg">
<path d="M14.5625 8.5625V11.5635L11.5625 10.8135V7.81348L14.5625 8.5625Z" fill="black"/>
<path fill-rule="evenodd" clip-rule="evenodd" d="M5.75 4.27734L8.22266 3.63867C9.92266 3.20167 11.7153 3.22508 13.4043 3.70508L13.7832 3.81445C15.2721 4.23737 16.8443 4.23096 18.3232 3.79199L20.876 3.03613C21.14 2.95713 21.4265 3.00883 21.6475 3.17383C21.8683 3.33884 21.999 3.59908 21.999 3.875V14C21.999 14.388 21.744 14.7288 21.3721 14.8389L18.8203 15.5947C17.0193 16.1277 15.1108 16.1381 13.3018 15.6221L12.9229 15.5127C11.533 15.1178 10.058 15.098 8.66016 15.459L5.75 16.21V22H4V2H5.75V4.27734ZM18.8213 5.46973C18.4067 5.59242 17.9859 5.6857 17.5625 5.75293V8.5625H14.5625V5.76758C14.1392 5.70453 13.7181 5.61555 13.3027 5.49707L12.9238 5.3877C12.4771 5.26076 12.0214 5.17329 11.5625 5.12402V7.81348H8.5625V5.35938L5.75 6.08496V8.51562L8.5625 7.81348V10.8125L5.75 11.5156V14.4023L8.22363 13.7637C8.33604 13.7347 8.44934 13.7085 8.5625 13.6836V10.8125L11.5625 10.8135V13.4902C12.1839 13.545 12.8013 13.6584 13.4053 13.8301L13.7842 13.9395C14.0413 14.0125 14.3013 14.0708 14.5625 14.1182V11.5635H17.5625V14.1016C17.8184 14.052 18.0729 13.9914 18.3242 13.917L20.25 13.3467V10.8906L17.5625 11.5635V8.5625L20.25 7.89062V5.04688L18.8213 5.46973Z" fill="black"/>
</svg>

<!-- This Source Code Form is subject to the terms of the Mozilla Public
   - License, v. 2.0. If a copy of the MPL was not distributed with this
   - file, You can obtain one at http://mozilla.org/MPL/2.0/. -->
<svg xmlns="http://www.w3.org/2000/svg" width="24" height="24" fill="none" viewBox="0 0 24 24">
    <path fill="#000" d="M14.563 8.563v3l-3-.75v-3z" />
    <path fill="#000" fill-rule="evenodd" d="m5.75 4.277 2.473-.638a9.93 9.93 0 0 1 5.181.066l.38.11a8.13 8.13 0 0 0 4.54-.023l2.552-.756a.873.873 0 0 1 1.123.839V14a.875.875 0 0 1-.627.839l-2.552.756a9.87 9.87 0 0 1-5.518.027l-.38-.11a8.16 8.16 0 0 0-4.262-.053l-2.91.751V22H4V2h1.75zM18.821 5.47a10 10 0 0 1-1.259.283v2.81h-3V5.768a10 10 0 0 1-1.26-.27l-.378-.11a8 8 0 0 0-1.361-.264v2.69h-3V5.358l-2.813.726v2.43l2.813-.702v3l-2.813.703v2.886l2.474-.638a10 10 0 0 1 .338-.08v-2.871h3v2.677a10 10 0 0 1 1.843.34l.38.11q.385.107.777.178v-2.555h3v2.539q.384-.074.762-.185l1.926-.57V10.89l-2.687.672v-3l2.687-.672V5.047z" clip-rule="evenodd" />
</svg>
